src/assets/images/smartysale.svg

<?xml version="1.0" encoding="UTF-8"?>
<svg width="54px" height="41px" viewBox="0 0 54 41" xmlns="http://www.w3.org/2000/svg" xmlns:xlink="http://www.w3.org/1999/xlink" version="1.1">
 <!-- Generated by Pixelmator Pro 2.1.4 -->
 <path id="Path" d="M200.2 20.29 C199.218 19.026 197.69 18.308 196.09 18.36 193.66 18.36 192.5 19.36 192.5 20.66 192.5 22.17 194.28 22.59 196.36 22.84 199.97 23.29 203.36 24.23 203.36 28.36 203.36 32.22 199.94 33.88 196.08 33.88 192.54 33.88 189.82 32.79 188.53 29.62 L191.25 28.21 C192 30.11 194 31 196.12 31 198.24 31 200.12 30.28 200.12 28.4 200.12 26.77 198.41 26.1 196.12 25.85 192.58 25.43 189.31 24.49 189.31 20.6 189.31 17.04 192.82 15.6 196.02 15.6 198.72 15.6 201.51 16.37 202.83 19.04 Z M218.91 30.16 L209.85 30.16 208.36 33.43 204.82 33.43 212.6 16.1 216.16 16.1 223.93 33.43 220.37 33.43 Z M214.38 19.74 L211.16 27.12 217.6 27.12 Z M229.71 16.1 L229.71 30.41 238.62 30.41 238.62 33.41 226.44 33.41 226.44 16.1 Z M254.57 33.43 L241.57 33.43 241.57 16.1 254.57 16.1 254.57 19.27 244.84 19.27 244.84 23.27 254.22 23.27 254.22 26.27 244.84 26.27 244.84 30.18 254.57 30.18 Z M10 14.34 C10 13.235 9.105 12.34 8 12.34 L1.57 12.34 C1.079 12.31 0.606 12.524 0.304 12.912 0.002 13.3 -0.089 13.812 0.06 14.28 L0.84 17.36 C1.168 18.47 2.164 19.249 3.32 19.3 L8 19.3 C9.105 19.3 10 18.405 10 17.3 Z M13.88 22.84 C13.88 22.31 13.669 21.801 13.294 21.426 12.919 21.051 12.41 20.84 11.88 20.84 L7.58 20.84 C7.089 20.81 6.616 21.024 6.314 21.412 6.012 21.8 5.921 22.312 6.07 22.78 L6.85 25.86 C7.178 26.97 8.174 27.749 9.33 27.8 L11.88 27.8 C12.41 27.8 12.919 27.589 13.294 27.214 13.669 26.839 13.88 26.33 13.88 25.8 Z" fill="#d73f72" fill-opacity="1" stroke="none"/>
 <path id="Path-1" d="M23.93 24.32 L23.93 25.8 C23.93 26.905 23.035 27.8 21.93 27.8 L18.97 27.8 C17.865 27.8 16.97 26.905 16.97 25.8 L16.97 22.84 C16.97 21.735 17.865 20.84 18.97 20.84 L21.93 20.84 C23.035 20.84 23.93 21.735 23.93 22.84 Z" fill="#d73f72" fill-opacity="1" stroke="none"/>
 <path id="Path-2" d="M21.61 15.82 L21.61 17.3 C21.61 18.405 20.715 19.3 19.61 19.3 L16.65 19.3 C15.545 19.3 14.65 18.405 14.65 17.3 L14.65 14.34 C14.65 13.235 15.545 12.34 16.65 12.34 L19.61 12.34 C20.715 12.34 21.61 13.235 21.61 14.34 Z" fill="#d73f72" fill-opacity="1" stroke="none"/>
 <path id="Path-3" d="M11.27 29.35 C10.779 29.32 10.306 29.534 10.004 29.922 9.702 30.31 9.611 30.822 9.76 31.29 L10.54 34.37 C10.865 35.473 11.851 36.251 13 36.31 L13.41 36.31 C13.94 36.31 14.449 36.099 14.824 35.724 15.199 35.349 15.41 34.84 15.41 34.31 L15.41 31.31 C15.41 30.78 15.199 30.271 14.824 29.896 14.449 29.521 13.94 29.31 13.41 29.31 Z" fill="#d73f72" fill-opacity="1" stroke="none"/>
 <path id="Path-4" d="M46.36 37.9 C46.36 37.9 45.61 40.22 44.7 40.22 L13.22 40.22 C12.31 40.22 11.56 37.9 11.56 37.9 Z M25.65 0 L25.65 9.24 C25.614 9.639 25.744 10.035 26.008 10.336 26.273 10.636 26.65 10.815 27.05 10.83 L30.92 10.83 C31.812 10.822 32.547 10.13 32.61 9.24 L32.61 0" fill="#767998" fill-opacity="1" stroke="none"/>
 <path id="Path-5" d="M34.05 1.55 L25.54 0 32.5 0 39.46 1.55 Z" fill="#767998" fill-opacity="1" stroke="none"/>
 <path id="Path-6" d="M34.16 1.55 L34.16 9.25 C34.124 9.649 34.254 10.045 34.518 10.346 34.783 10.646 35.16 10.825 35.56 10.84 L37.88 10.84 C38.772 10.832 39.507 10.14 39.57 9.25 L39.57 1.55" fill="#767998" fill-opacity="1" stroke="none"/>
 <path id="Path-7" d="M40.95 15.82 L40.95 17.3 C40.95 18.405 40.055 19.3 38.95 19.3 L35.99 19.3 C34.885 19.3 33.99 18.405 33.99 17.3 L33.99 14.34 C33.99 13.235 34.885 12.34 35.99 12.34 L38.95 12.34 C40.055 12.34 40.95 13.235 40.95 14.34 Z" fill="#767998" fill-opacity="1" stroke="none"/>
 <path id="Path-8" d="M49.18 19.3 C50.34 19.253 51.341 18.473 51.67 17.36 L52.45 14.28 C52.599 13.812 52.508 13.3 52.206 12.912 51.904 12.524 51.431 12.31 50.94 12.34 L44.49 12.34 C43.96 12.34 43.451 12.551 43.076 12.926 42.701 13.301 42.49 13.81 42.49 14.34 L42.49 17.34 C42.49 17.87 42.701 18.379 43.076 18.754 43.451 19.129 43.96 19.34 44.49 19.34 Z" fill="#767998" fill-opacity="1" stroke="none"/>
 <path id="Path-9" d="M40.95 24.32 L40.95 25.8 C40.95 26.905 40.055 27.8 38.95 27.8 L35.99 27.8 C34.885 27.8 33.99 26.905 33.99 25.8 L33.99 22.84 C33.99 21.735 34.885 20.84 35.99 20.84 L38.95 20.84 C40.055 20.84 40.95 21.735 40.95 22.84 Z" fill="#767998" fill-opacity="1" stroke="none"/>
 <path id="Path-10" d="M32.44 15.82 L32.44 17.3 C32.44 18.405 31.545 19.3 30.44 19.3 L27.48 19.3 C26.375 19.3 25.48 18.405 25.48 17.3 L25.48 14.34 C25.48 13.235 26.375 12.34 27.48 12.34 L30.44 12.34 C31.545 12.34 32.44 13.235 32.44 14.34 Z" fill="#767998" fill-opacity="1" stroke="none"/>
 <path id="Path-11" d="M32.44 32.83 L32.44 34.31 C32.44 35.415 31.545 36.31 30.44 36.31 L27.48 36.31 C26.375 36.31 25.48 35.415 25.48 34.31 L25.48 31.35 C25.48 30.245 26.375 29.35 27.48 29.35 L30.44 29.35 C31.545 29.35 32.44 30.245 32.44 31.35 Z" fill="#767998" fill-opacity="1" stroke="none"/>
 <path id="Path-12" d="M44.49 20.84 C43.96 20.84 43.451 21.051 43.076 21.426 42.701 21.801 42.49 22.31 42.49 22.84 L42.49 25.84 C42.49 26.37 42.701 26.879 43.076 27.254 43.451 27.629 43.96 27.84 44.49 27.84 L47 27.84 C48.16 27.793 49.161 27.013 49.49 25.9 L50.27 22.82 C50.419 22.352 50.328 21.84 50.026 21.452 49.724 21.064 49.251 20.85 48.76 20.88 Z" fill="#767998" fill-opacity="1" stroke="none"/>
 <path id="Path-13" d="M40.95 32.83 L40.95 34.31 C40.95 35.415 40.055 36.31 38.95 36.31 L35.99 36.31 C34.885 36.31 33.99 35.415 33.99 34.31 L33.99 31.35 C33.99 30.245 34.885 29.35 35.99 29.35 L38.95 29.35 C40.055 29.35 40.95 30.245 40.95 31.35 Z" fill="#767998" fill-opacity="1" stroke="none"/>
 <path id="Path-14" d="M23.93 32.83 L23.93 34.31 C23.93 35.415 23.035 36.31 21.93 36.31 L18.97 36.31 C17.865 36.31 16.97 35.415 16.97 34.31 L16.97 31.35 C16.97 30.245 17.865 29.35 18.97 29.35 L21.93 29.35 C23.035 29.35 23.93 30.245 23.93 31.35 Z" fill="#767998" fill-opacity="1" stroke="none"/>
 <path id="Path-15" d="M42.49 34.31 C42.49 34.84 42.701 35.349 43.076 35.724 43.451 36.099 43.96 36.31 44.49 36.31 L44.9 36.31 C46.06 36.263 47.061 35.483 47.39 34.37 L48.17 31.29 C48.319 30.822 48.228 30.31 47.926 29.922 47.624 29.534 47.151 29.32 46.66 29.35 L44.49 29.35 C43.96 29.35 43.451 29.561 43.076 29.936 42.701 30.311 42.49 30.82 42.49 31.35 Z" fill="#767998" fill-opacity="1" stroke="none"/>
 <path id="Path-16" d="M32.44 24.32 L32.44 25.8 C32.44 26.905 31.545 27.8 30.44 27.8 L27.48 27.8 C26.375 27.8 25.48 26.905 25.48 25.8 L25.48 22.84 C25.48 21.735 26.375 20.84 27.48 20.84 L30.44 20.84 C31.545 20.84 32.44 21.735 32.44 22.84 Z" fill="#767998" fill-opacity="1" stroke="none"/>
</svg>

<svg width="54" height="41" xmlns="http://www.w3.org/2000/svg"><path d="M200.2 20.29a5 5 0 00-4.11-1.93c-2.43 0-3.59 1-3.59 2.3 0 1.51 1.78 1.93 3.86 2.18 3.61.45 7 1.39 7 5.52 0 3.86-3.42 5.52-7.28 5.52-3.54 0-6.26-1.09-7.55-4.26l2.72-1.41C192 30.11 194 31 196.12 31s4-.72 4-2.6c0-1.63-1.71-2.3-4-2.55-3.54-.42-6.81-1.36-6.81-5.25 0-3.56 3.51-5 6.71-5 2.7 0 5.49.77 6.81 3.44zm18.71 9.87h-9.06l-1.49 3.27h-3.54l7.78-17.33h3.56l7.77 17.33h-3.56zm-4.53-10.42l-3.22 7.38h6.44zm15.33-3.64v14.31h8.91v3h-12.18V16.1zm24.86 17.33h-13V16.1h13v3.17h-9.73v4h9.38v3h-9.38v3.91h9.73zM10 14.34a2 2 0 00-2-2H1.57a1.488 1.488 0 00-1.51 1.94l.78 3.08a2.71 2.71 0 002.48 1.94H8a2 2 0 002-2zm3.88 8.5a2 2 0 00-2-2h-4.3a1.488 1.488 0 00-1.51 1.94l.78 3.08a2.71 2.71 0 002.48 1.94h2.55a2 2 0 002-2zM23.93 24.32v1.48a2 2 0 01-2 2h-2.96a2 2 0 01-2-2v-2.96a2 2 0 012-2h2.96a2 2 0 012 2zM21.61 15.82v1.48a2 2 0 01-2 2h-2.96a2 2 0 01-2-2v-2.96a2 2 0 012-2h2.96a2 2 0 012 2zM11.27 29.35a1.488 1.488 0 00-1.51 1.94l.78 3.08A2.71 2.71 0 0013 36.31h.41a2 2 0 002-2v-3a2 2 0 00-2-2z" fill="#d73f72"/><path d="M46.36 37.9s-.75 2.32-1.66 2.32H13.22c-.91 0-1.66-2.32-1.66-2.32zM25.65 0v9.24c-.036.399.094.795.358 1.096.265.3.642.479 1.042.494h3.87a1.71 1.71 0 001.69-1.59V0" fill="#767998"/><path d="M34.05 1.55L25.54 0h6.96l6.96 1.55z" fill="#767998"/><path d="M34.16 1.55v7.7c-.036.399.094.795.358 1.096.265.3.642.479 1.042.494h2.32a1.71 1.71 0 001.69-1.59v-7.7M40.95 15.82v1.48a2 2 0 01-2 2h-2.96a2 2 0 01-2-2v-2.96a2 2 0 012-2h2.96a2 2 0 012 2zM49.18 19.3a2.71 2.71 0 002.49-1.94l.78-3.08a1.491 1.491 0 00-1.51-1.94h-6.45a2 2 0 00-2 2v3a2 2 0 002 2zM40.95 24.32v1.48a2 2 0 01-2 2h-2.96a2 2 0 01-2-2v-2.96a2 2 0 012-2h2.96a2 2 0 012 2zM32.44 15.82v1.48a2 2 0 01-2 2h-2.96a2 2 0 01-2-2v-2.96a2 2 0 012-2h2.96a2 2 0 012 2zM32.44 32.83v1.48a2 2 0 01-2 2h-2.96a2 2 0 01-2-2v-2.96a2 2 0 012-2h2.96a2 2 0 012 2zM44.49 20.84a2 2 0 00-2 2v3a2 2 0 002 2H47a2.71 2.71 0 002.49-1.94l.78-3.08a1.491 1.491 0 00-1.51-1.94zM40.95 32.83v1.48a2 2 0 01-2 2h-2.96a2 2 0 01-2-2v-2.96a2 2 0 012-2h2.96a2 2 0 012 2zM23.93 32.83v1.48a2 2 0 01-2 2h-2.96a2 2 0 01-2-2v-2.96a2 2 0 012-2h2.96a2 2 0 012 2zM42.49 34.31a2 2 0 002 2h.41a2.71 2.71 0 002.49-1.94l.78-3.08a1.491 1.491 0 00-1.51-1.94h-2.17a2 2 0 00-2 2zM32.44 24.32v1.48a2 2 0 01-2 2h-2.96a2 2 0 01-2-2v-2.96a2 2 0 012-2h2.96a2 2 0 012 2z" fill="#767998"/></svg>
